X:299
T:Air for New York
C:Nigel Gatherer
Z:Nigel Gatherer <gatherer@argonet.co.uk>
M:4/4
L:1/8
R:Slow air
K:D
F/E/|D3 F A3 d/e/|fAAf gBBd|c3 d ecBA|fdAF EF/G/ FE|
D3 F A3 d/e/|fAAf gBBd|c3 d ecBA|d4- d3|]
F/G/|A3 c/d/ G3 c/d/|Ac/d/ eg f3 e|dc/d/ FA B>ggB|AffA GF/G/ EF/G/|
A3 c/d/ G3 c/d/|Ac/d/ eg g>aa>g|fAAf gBBd|c>AGE D3|]
<end>
<start>
